shared/images/iconfont/kb-iconfont-question-mark-16.svg

<?xml version="1.0" encoding="UTF-8"?>
<svg width="16px" height="16px" viewBox="0 0 16 16" version="1.1" xmlns="http://www.w3.org/2000/svg" xmlns:xlink="http://www.w3.org/1999/xlink">
    <!-- Generator: sketchtool 49.3 (51167) - http://www.bohemiancoding.com/sketch -->
    <title>AE1F78CD-A60F-459C-9086-E5EF7394D472</title>
    <desc>Created with sketchtool.</desc>
    <defs></defs>
    <g id="Colors,-icons" stroke="none" stroke-width="1" fill="none" fill-rule="evenodd">
        <g id="Icons-2" transform="translate(-462.000000, -367.000000)">
            <g id="kb-iconfont-question-mark-16" transform="translate(462.000000, 367.000000)">
                <rect id="icon-area" x="0" y="0" width="16" height="16"></rect>
                <path d="M8,0 C12.418278,0 16,3.581722 16,8 C16,12.418278 12.418278,16 8,16 C3.581722,16 0,12.418278 0,8 C0,3.581722 3.581722,0 8,0 Z M8,14 C11.3136887,13.9999521 13.9999521,11.3136887 14,8 C14,4.6862915 11.3137085,2 8,2 C4.6862915,2 2,4.6862915 2,8 C2,11.3137085 4.6862915,14 8,14 Z" id="Combined-Shape" fill="#000000"></path>
                <path d="M7.81539769,12.0725682 C7.40983359,11.9996855 7.08569093,11.7174666 6.94781526,11.3172372 C6.90647202,11.1971976 6.8999939,11.1514027 6.8999939,10.9786329 C6.8999939,10.8058631 6.90647202,10.7600682 6.94781526,10.6400286 C7.06903686,10.2881375 7.31028453,10.0469464 7.66225811,9.92575321 C7.78232588,9.88441966 7.82813152,9.87794305 8.00094181,9.87794305 C8.1737521,9.87794305 8.21955774,9.88441966 8.33962551,9.92575321 C8.69159909,10.0469464 8.93284676,10.2881375 9.05405446,10.6400286 C9.09541159,10.7600682 9.10187582,10.8058631 9.10187582,10.9786329 C9.10187582,11.1514027 9.09541159,11.1971976 9.05405446,11.3172372 C8.93331941,11.6677246 8.68859636,11.9131825 8.34486639,12.0285384 C8.19377034,12.0792533 7.96050217,12.0986414 7.81538379,12.0725682 L7.81539769,12.0725682 Z" id="Path" fill="#000000"></path>
                <path d="M7.06264108,8.05910418 C7.06676584,8.05146286 7.07093552,8.04405521 7.07515012,8.03688125 C7.2234418,7.78446381 7.494703,7.51605211 7.88894185,7.2316381 C8.26871322,6.96499996 8.51917773,6.74813752 8.64034288,6.58104429 C8.76150803,6.41395105 8.8220897,6.22730715 8.8220897,6.02110699 C8.8220897,5.79002061 8.73528612,5.61404207 8.56167635,5.49316612 C8.38806658,5.37229016 8.14573991,5.31185309 7.83468907,5.31185309 C7.56167857,5.31185309 7.14235644,5.41110703 6.57672266,5.60961491 L6.57672794,5.60962995 C6.23107825,5.73093492 5.84904764,5.57733623 5.68356627,5.25052662 L5.68356627,5.25052662 C5.5368015,4.96068049 5.65279187,4.60673743 5.942638,4.45997266 C5.96512797,4.44858477 5.9883267,4.43865431 6.0120907,4.4302427 C6.82243187,4.14341569 7.46974952,4 7.95404519,4 C8.69912045,4 9.29137407,4.17597853 9.7308238,4.52794088 C10.1702735,4.87990322 10.3899951,5.34917931 10.3899951,5.93578322 C10.3899951,6.32685249 10.2995747,6.66458906 10.1187312,6.94900308 C9.93788768,7.2334171 9.59429016,7.55337806 9.08792833,7.90889558 C8.74070879,8.16131302 8.52098722,8.3532896 8.42875703,8.48483109 C8.42369134,8.49205592 8.41872999,8.49985588 8.41387298,8.50823095 L8.41387793,8.50823382 C8.2409766,8.80637189 7.91574578,8.98265041 7.57156308,8.96477734 L7.57156308,8.96477734 C7.23259579,8.94717509 6.97207796,8.65811838 6.9896802,8.3191511 C6.99440693,8.2281283 7.01932014,8.13929638 7.06261517,8.0590902 Z" id="?" fill="#000000"></path>
            </g>
        </g>
    </g>
</svg>

<svg xmlns="http://www.w3.org/2000/svg" width="16" height="16" viewBox="0 0 16 16">
    <g fill="none" fill-rule="evenodd">
        <path d="M0 0h16v16H0z"/>
        <path fill="#000" d="M8 0a8 8 0 1 1 0 16A8 8 0 0 1 8 0zm0 14A6 6 0 1 0 8 2a6 6 0 0 0 0 12z"/>
        <path fill="#000" d="M7.815 12.073a1.123 1.123 0 0 1-.867-.756.808.808 0 0 1-.048-.338c0-.173.006-.219.048-.339.121-.352.362-.593.714-.714a.808.808 0 0 1 .339-.048c.173 0 .219.006.339.048.352.12.593.362.714.714.041.12.048.166.048.339a.808.808 0 0 1-.048.338c-.12.35-.365.596-.71.712-.15.05-.383.07-.529.044zM7.063 8.06a.705.705 0 0 1 .012-.023c.148-.253.42-.52.814-.805.38-.267.63-.484.751-.651a.931.931 0 0 0 .182-.56.603.603 0 0 0-.26-.528c-.174-.12-.416-.181-.727-.181-.273 0-.693.1-1.258.298a.73.73 0 0 1-.893-.36.588.588 0 0 1 .328-.82C6.822 4.143 7.47 4 7.954 4c.745 0 1.337.176 1.777.528.44.352.659.821.659 1.408 0 .39-.09.729-.271 1.013-.181.284-.525.604-1.031.96-.347.252-.567.444-.66.576a.919.919 0 0 1-.857.48.615.615 0 0 1-.508-.906z"/>
    </g>
</svg>
